svgs/duotone/grid-2-plus.svg

<svg xmlns="http://www.w3.org/2000/svg" viewBox="0 0 512 512"><!--! Font Awesome Pro 6.5.1 by @fontawesome - https://fontawesome.com License - https://fontawesome.com/license (Commercial License) Copyright 2023 Fonticons, Inc. --><defs><style>.fa-secondary{opacity:.4}</style></defs><path class="fa-secondary" d="M32 80c0-26.5 21.5-48 48-48h96c26.5 0 48 21.5 48 48v96c0 26.5-21.5 48-48 48H80c-26.5 0-48-21.5-48-48V80zm0 256c0-26.5 21.5-48 48-48h96c26.5 0 48 21.5 48 48v96c0 26.5-21.5 48-48 48H80c-26.5 0-48-21.5-48-48V336zM336 32h96c26.5 0 48 21.5 48 48v96c0 26.5-21.5 48-48 48H336c-26.5 0-48-21.5-48-48V80c0-26.5 21.5-48 48-48z"/><path class="fa-primary" d="M408 296c0-13.3-10.7-24-24-24s-24 10.7-24 24v64H296c-13.3 0-24 10.7-24 24s10.7 24 24 24h64v64c0 13.3 10.7 24 24 24s24-10.7 24-24V408h64c13.3 0 24-10.7 24-24s-10.7-24-24-24H408V296z"/></svg>

<svg xmlns="http://www.w3.org/2000/svg" viewBox="0 0 512 512"><!--! Font Awesome Pro 6.1.1 by @fontawesome - https://fontawesome.com License - https://fontawesome.com/license (Commercial License) Copyright 2022 Fonticons, Inc. --><defs><style>.fa-secondary{opacity:.4}</style></defs><path class="fa-primary" d="M408 360H472C485.3 360 496 370.7 496 384C496 397.3 485.3 408 472 408H408V472C408 485.3 397.3 496 384 496C370.7 496 360 485.3 360 472V408H296C282.7 408 272 397.3 272 384C272 370.7 282.7 360 296 360H360V296C360 282.7 370.7 272 384 272C397.3 272 408 282.7 408 296V360z"/><path class="fa-secondary" d="M32 80C32 53.49 53.49 32 80 32H176C202.5 32 224 53.49 224 80V176C224 202.5 202.5 224 176 224H80C53.49 224 32 202.5 32 176V80zM32 336C32 309.5 53.49 288 80 288H176C202.5 288 224 309.5 224 336V432C224 458.5 202.5 480 176 480H80C53.49 480 32 458.5 32 432V336zM432 32C458.5 32 480 53.49 480 80V176C480 202.5 458.5 224 432 224H336C309.5 224 288 202.5 288 176V80C288 53.49 309.5 32 336 32H432z"/></svg>
